X: 1
T: The Bird In The Bush
R: reel
M: 4/4
L: 1/8
K: Gmaj
|: "G"d2eB dB~B2 | dBAB G3D | "Am"EA~A2 "G"BG~G2 | "C"BGBd "D"g2ge |
   "G"d2eB dB~B2 | dBAB ~G3E | "C"DEGA B2eB | "D"dBAd "G"BG~G2 :|
|: "Em"(3Bcd ef g3f | "D"afdf gfed | "Em"Bdef g~g2b | "C"ag"D"ab "G"g~g2a |
   "^G desc. line"bg~g2 agef | ~g2fe dBGE | "C"DEGA B2eB | "D"dBAd "G"BG~G2 :|

%%newpage
%%header "Lunchtime, Hedgehog, Donegal Lass		$P"

